X: 21462
T: Spanish Sett (tune 2)
C:
%R: march, reel
B: Elias Howe "The Musician's Companion" 1843 p.146 #2
S: http://imslp.org/wiki/The_Musician's_Companion_(Howe,_Elias)
Z: 2015 John Chambers <jc:trillian.mit.edu>
M: 2/4
L: 1/16
K: C
% - - - - - - - - - - - - - - - - - - - - - - - - -
V: 1 name="2"
ef |\
g2ga g2ga | g2c'2g2e2 | f2fe f2^f2 | a3g e2ef |\
g2ga g2ga | g2c'2g2e2 | fede a2g2 | [e6c6] H:|
|: g2 |\
fedc BGAB | cdef g2g2 | ^f2a2c'2f2 | g6 ef |\
g2ga g2ga | g2c'2g2e2 | fede a2g2 | "^D,C,"[e6c6] :|
% - - - - - - - - - - Dance description - - - - - - - - - -
%%begintext align
%% First two forward and back,
%% cross over,
%% chassa de chassa,
%% cross back,
%% balance four,
%% next two, &c.
%%endtext
% - - - - - - - - - - - - - - - - - - - - - - - - -
%%sep 1 1 300

%%sep 1 1 500

